X:3845
T:Nanny and Betty
M:4/4
O:Shetland
R:Reel
Z:Richard Robinson 
%%TUNEURL: http://www.leeds.ac.uk/music/Info/RRTuneBk/gettune/000009bc.html
%%ID:000009bc
K:A dorian
EGGG AGGG | EGGG ECC2 | D2EG A2AA | AcBd c4 :|
|:\
e2AA B2G2 | e2 ge defd | e2AA B2G2 | AcBd c4:|
